X:487
T:
R:vals
S:Uppt. efter förre hemmansägaren Gardell i Rodarve, Fardhem.
O:Gotland, Fardhem
M:3/4
L:1/8
K:Dm
AA|f2 d2 f2|e2 ^c2 e2|d^cdefg|g4 ^g2|a2 e2 eg|f2 d2 df|e2 ^cAce|d4:|
K:F
|:cB|Acfcac|Acfcac|Bcecgc|Bcecgc|Acfcac|Acfcac|=Bcecge|f4:|
K:Bb
|:fe|defgf=e|fbdg f2|cdef g2|Bcde f2|defgf=e|fbdg f2|ABcdec|B4:|

